dist/svg/printer-duo-tone.svg

<svg xmlns="http://www.w3.org/2000/svg" viewBox="0 0 24 24"><path d="M7.617 2.283q-.873.101-1.552.781A2.7 2.7 0 0 0 5.37 4.18l-.108.32-.013 1.863-.014 1.864-.449.044c-.743.073-1.219.292-1.721.793a2.74 2.74 0 0 0-.696 1.116l-.109.32v6l.109.32c.151.445.362.783.695 1.116.5.5 1.086.764 1.797.811l.368.024.024.368c.047.711.311 1.297.811 1.797.333.333.671.544 1.116.695l.32.109h9l.32-.109a2.74 2.74 0 0 0 1.116-.695c.5-.5.764-1.086.811-1.797l.024-.368.368-.024a2.7 2.7 0 0 0 1.797-.811c.333-.333.544-.671.695-1.116l.109-.32v-6l-.109-.32a2.74 2.74 0 0 0-.696-1.116c-.502-.501-.978-.72-1.721-.793l-.449-.044-.014-1.864-.013-1.863-.108-.32a2.7 2.7 0 0 0-.695-1.116c-.472-.471-.961-.709-1.606-.783-.422-.049-8.296-.046-8.712.002m8.911 1.59c.239.118.481.36.599.599.092.187.093.199.104 1.978l.011 1.79H6.76V6.505c0-1.895.002-1.914.236-2.233.14-.19.38-.373.59-.45.13-.048.833-.056 4.454-.049l4.3.007zm2.999 6.003c.23.117.475.364.6.604l.093.18v5.68l-.099.195c-.13.253-.467.559-.707.641-.103.035-.29.064-.415.064h-.227l-.022-.39c-.062-1.127-.781-2.079-1.865-2.467l-.345-.123H7.46l-.345.123c-1.084.388-1.803 1.34-1.865 2.467l-.022.39h-.227c-.125 0-.312-.029-.415-.064-.24-.082-.577-.388-.707-.641l-.099-.195v-5.68l.093-.18c.165-.316.477-.589.773-.674.085-.025 2.796-.037 7.414-.033l7.28.007zm-1.827 1.44a.745.745 0 0 0 .029 1.382.65.65 0 0 0 .542 0 .748.748 0 0 0 0-1.396.67.67 0 0 0-.571.014m-1.272 4.53c.315.116.61.412.728.73.084.226.087.284.076 1.5-.012 1.231-.014 1.269-.105 1.453-.132.268-.416.534-.674.63-.212.079-.302.081-4.453.081s-4.241-.002-4.453-.081c-.258-.096-.542-.362-.674-.63-.09-.184-.093-.224-.105-1.429-.015-1.499 0-1.578.349-1.953a1.15 1.15 0 0 1 .523-.332c.102-.034 1.269-.048 4.348-.051 4.208-.004 4.209-.004 4.44.082"/></svg>

<svg fill="none" xmlns="http://www.w3.org/2000/svg" viewBox="0 0 24 24"><path d="M7.617 2.283 C 7.034 2.351,6.519 2.610,6.065 3.064 C 5.731 3.397,5.520 3.736,5.370 4.180 L 5.262 4.500 5.249 6.363 L 5.235 8.227 4.786 8.271 C 4.043 8.344,3.567 8.563,3.065 9.064 C 2.732 9.396,2.521 9.735,2.369 10.180 L 2.260 10.500 2.260 13.500 L 2.260 16.500 2.369 16.820 C 2.520 17.265,2.731 17.603,3.064 17.936 C 3.564 18.436,4.150 18.700,4.861 18.747 L 5.229 18.771 5.253 19.139 C 5.300 19.850,5.564 20.436,6.064 20.936 C 6.397 21.269,6.735 21.480,7.180 21.631 L 7.500 21.740 12.000 21.740 L 16.500 21.740 16.820 21.631 C 17.265 21.480,17.603 21.269,17.936 20.936 C 18.436 20.436,18.700 19.850,18.747 19.139 L 18.771 18.771 19.139 18.747 C 19.850 18.700,20.436 18.436,20.936 17.936 C 21.269 17.603,21.480 17.265,21.631 16.820 L 21.740 16.500 21.740 13.500 L 21.740 10.500 21.631 10.180 C 21.479 9.735,21.268 9.396,20.935 9.064 C 20.433 8.563,19.957 8.344,19.214 8.271 L 18.765 8.227 18.751 6.363 L 18.738 4.500 18.630 4.180 C 18.480 3.736,18.269 3.397,17.935 3.064 C 17.463 2.593,16.974 2.355,16.329 2.281 C 15.907 2.232,8.033 2.235,7.617 2.283 M16.528 3.873 C 16.767 3.991,17.009 4.233,17.127 4.472 C 17.219 4.659,17.220 4.671,17.231 6.450 L 17.242 8.240 12.001 8.240 L 6.760 8.240 6.760 6.505 C 6.760 4.610,6.762 4.591,6.996 4.272 C 7.136 4.082,7.376 3.899,7.586 3.822 C 7.716 3.774,8.419 3.766,12.040 3.773 L 16.340 3.780 16.528 3.873 M19.527 9.876 C 19.757 9.993,20.002 10.240,20.127 10.480 L 20.220 10.660 20.220 13.500 L 20.220 16.340 20.121 16.535 C 19.991 16.788,19.654 17.094,19.414 17.176 C 19.311 17.211,19.124 17.240,18.999 17.240 L 18.772 17.240 18.750 16.850 C 18.688 15.723,17.969 14.771,16.885 14.383 L 16.540 14.260 12.000 14.260 L 7.460 14.260 7.115 14.383 C 6.031 14.771,5.312 15.723,5.250 16.850 L 5.228 17.240 5.001 17.240 C 4.876 17.240,4.689 17.211,4.586 17.176 C 4.346 17.094,4.009 16.788,3.879 16.535 L 3.780 16.340 3.780 13.500 L 3.780 10.660 3.873 10.480 C 4.038 10.164,4.350 9.891,4.646 9.806 C 4.731 9.781,7.442 9.769,12.060 9.773 L 19.340 9.780 19.527 9.876 M17.700 11.316 C 17.084 11.600,17.101 12.436,17.729 12.698 C 17.917 12.777,18.083 12.777,18.271 12.698 C 18.911 12.431,18.911 11.569,18.271 11.302 C 18.076 11.221,17.897 11.225,17.700 11.316 M16.428 15.846 C 16.743 15.962,17.038 16.258,17.156 16.576 C 17.240 16.802,17.243 16.860,17.232 18.076 C 17.220 19.307,17.218 19.345,17.127 19.529 C 16.995 19.797,16.711 20.063,16.453 20.159 C 16.241 20.238,16.151 20.240,12.000 20.240 C 7.849 20.240,7.759 20.238,7.547 20.159 C 7.289 20.063,7.005 19.797,6.873 19.529 C 6.783 19.345,6.780 19.305,6.768 18.100 C 6.753 16.601,6.768 16.522,7.117 16.147 C 7.271 15.982,7.418 15.889,7.640 15.815 C 7.742 15.781,8.909 15.767,11.988 15.764 C 16.196 15.760,16.197 15.760,16.428 15.846 " stroke="none" fill-rule="evenodd"/></svg>
